X: 37340
T: Sláinte Ag An Doras
R: reel
M: 4/4
K: Dmajor
DE|F2 Ad fdAa|g2 Bd gfed|c2 Ac eAce|d2 Ad fdAG|
F/F/F Ad fdAa|g/a/g Bd gf e/d/B|c/d/c Ac eA c/B/A|d2 ec d2||
ag|fd d/d/d AF F/F/F|GBDG BDGd|cEAc eAce|dfAd fgfe|
fdcd AF A/G/F|G2 DG BDGd|c2 Ac eAce|d2 c2 d2||

